docs/img/thoughts.svg

<svg width="107" height="104" viewBox="0 0 107 104" fill="none" xmlns="http://www.w3.org/2000/svg">
<path fill-rule="evenodd" clip-rule="evenodd" d="M78.2607 85.3739L91.1327 88.5139L87.4137 75.7939L78.2607 85.3739Z" fill="#F15A28"/>
<mask id="mask0_0_2398" style="mask-type:alpha" maskUnits="userSpaceOnUse" x="0" y="1" width="88" height="85">
<path fill-rule="evenodd" clip-rule="evenodd" d="M0 85.3611V1H87.4005V85.3611H0H0Z" fill="white"/>
</mask>
<g mask="url(#mask0_0_2398)">
<path fill-rule="evenodd" clip-rule="evenodd" d="M2.1946 3.4973C8.7936 -3.4097 28.2766 4.5023 45.7116 21.1693C50.3926 25.6433 54.4496 30.2953 57.7536 34.8393L57.8536 39.2473C57.8806 40.4363 58.8746 41.3883 60.0636 41.3603L64.0426 41.2703C65.3216 42.3713 66.5956 43.5243 67.8576 44.7313C79.2376 55.6093 86.5216 67.6433 87.4006 75.8083L78.2736 85.3613C70.0806 84.8533 57.7326 78.1213 46.3516 67.2423C45.0896 66.0363 43.8806 64.8153 42.7226 63.5883L42.6326 59.6073C42.6046 58.4183 41.6106 57.4683 40.4216 57.4943L36.0136 57.5953C31.3266 54.4993 26.4976 50.6563 21.8156 46.1813C4.3806 29.5143 -4.4044 10.4043 2.1946 3.4973Z" fill="#F86703"/>
</g>
<mask id="mask1_0_2398" style="mask-type:alpha" maskUnits="userSpaceOnUse" x="0" y="1" width="107" height="103">
<path fill-rule="evenodd" clip-rule="evenodd" d="M0.000100299 57.5953V1.0001H106.402V103.68H0.000100299V57.5953L0 1H57.7536V57.5953H0.000100299Z" fill="white"/>
</mask>
<g mask="url(#mask1_0_2398)">
<path fill-rule="evenodd" clip-rule="evenodd" d="M40.4216 57.4943L36.0136 57.5953C31.3266 54.4993 26.4976 50.6563 21.8156 46.1813C4.3806 29.5143 -4.4044 10.4043 2.1946 3.4973C8.7936 -3.4097 28.2766 4.5023 45.7116 21.1693C50.3926 25.6433 54.4496 30.2953 57.7536 34.8393" fill="#FFC105"/>
</g>
<path fill-rule="evenodd" clip-rule="evenodd" d="M78.2735 85.3618C72.5415 85.0068 64.7755 81.6038 56.7295 75.8658L74.7945 75.1558C75.3845 75.1328 75.9175 74.8698 76.3015 74.4638C76.6855 74.0568 76.9205 73.5078 76.9165 72.9078L76.7975 54.5298C82.9775 62.3728 86.7805 70.0518 87.4005 75.8078L78.2735 85.3618Z" fill="#F15A28"/>
<path fill-rule="evenodd" clip-rule="evenodd" d="M30.7932 33.5355C31.4992 33.5085 32.1352 33.1935 32.5942 32.7085C33.0532 32.2225 33.3352 31.5645 33.3302 30.8485L33.2012 10.8975C37.3542 13.7785 41.5902 17.2285 45.7112 21.1685C46.4882 21.9105 47.2452 22.6575 47.9862 23.4085L48.1242 44.7245C48.1292 45.5175 47.8172 46.2465 47.3082 46.7845C46.7992 47.3235 46.0932 47.6725 45.3112 47.7025L24.3482 48.5275C23.5012 47.7655 22.6562 46.9835 21.8152 46.1815C17.7502 42.2945 14.1552 38.2755 11.1162 34.3085L30.7932 33.5355Z" fill="#F7941E"/>
<path fill-rule="evenodd" clip-rule="evenodd" d="M24.3486 48.5277L45.3106 47.7027C46.0936 47.6727 46.7996 47.3237 47.3086 46.7857C47.8176 46.2467 48.1286 45.5177 48.1236 44.7247L47.9866 23.4087C51.7156 27.1837 54.9976 31.0487 57.7536 34.8387L57.8536 39.2477C57.8806 40.4367 58.8746 41.3877 60.0636 41.3607L64.0426 41.2697C64.4726 41.6397 64.9006 42.0177 65.3286 42.3987L65.4506 61.2877C65.4556 62.0807 65.1436 62.8087 64.6356 63.3477C64.1266 63.8867 63.4206 64.2357 62.6386 64.2657L44.0786 64.9957C43.6196 64.5277 43.1656 64.0577 42.7226 63.5877L42.6316 59.6067C42.6046 58.4177 41.6106 57.4667 40.4216 57.4947L36.0136 57.5937C32.1676 55.0547 28.2256 52.0097 24.3486 48.5277Z" fill="#F86703"/>
<path fill-rule="evenodd" clip-rule="evenodd" d="M93.2273 86.7661L88.1523 92.0771L93.2273 86.7661Z" fill="#BC7400"/>
<path fill-rule="evenodd" clip-rule="evenodd" d="M82.0713 86.0149L88.0723 79.7349L91.5743 84.7149L87.2063 89.3319L82.0713 86.0149Z" fill="#F15A28"/>
<path fill-rule="evenodd" clip-rule="evenodd" d="M90.5702 98.2454L104.635 102.014L98.5822 96.9344C97.7762 97.2684 96.8692 97.1084 96.2222 96.4914C95.3452 95.6524 95.3132 94.2534 96.1522 93.3754C96.9902 92.4984 98.3902 92.4664 99.2672 93.3054C99.9142 93.9234 100.116 94.8664 99.8182 95.6414L104.635 102.014L100.721 87.6704L92.9422 85.3164L87.8672 90.6274L90.5702 98.2454Z" fill="#F15A28"/>
<path fill-rule="evenodd" clip-rule="evenodd" d="M85.5264 90.9515C84.7414 90.2015 84.7134 88.9365 85.4644 88.1975L90.3624 83.0715C91.1124 82.2865 92.3314 82.2595 93.1164 83.0095C93.9014 83.7595 93.9294 84.9775 93.1794 85.7635L88.2804 90.8895C87.5304 91.6745 86.3114 91.7015 85.5264 90.9515Z" fill="#F15A28"/>
<mask id="mask2_0_2398" style="mask-type:alpha" maskUnits="userSpaceOnUse" x="102" y="100" width="5" height="4">
<path fill-rule="evenodd" clip-rule="evenodd" d="M106.402 103.68H102.864L102.864 100.142H106.402V103.68Z" fill="white"/>
</mask>
<g mask="url(#mask2_0_2398)">
<path fill-rule="evenodd" clip-rule="evenodd" d="M102.865 101.952C102.887 102.929 103.697 103.702 104.674 103.681C105.65 103.658 106.424 102.848 106.402 101.872C106.38 100.895 105.57 100.122 104.594 100.143C103.617 100.166 102.843 100.975 102.865 101.952Z" fill="#F15A28"/>
</g>
<path fill-rule="evenodd" clip-rule="evenodd" d="M95.4596 94.9777C95.4876 96.2157 96.5146 97.1987 97.7536 97.1697C98.9936 97.1417 99.9746 96.1147 99.9466 94.8747C99.9186 93.6357 98.8916 92.6547 97.6526 92.6827C96.4136 92.7107 95.4316 93.7387 95.4596 94.9777Z" fill="white"/>
<path fill-rule="evenodd" clip-rule="evenodd" d="M99.8179 95.6421L98.5029 97.0181L98.8349 98.3761L103.985 101.619L103.42 99.2981L99.8179 95.6421Z" fill="#F15A28"/>
<path fill-rule="evenodd" clip-rule="evenodd" d="M95.4596 94.9777C95.4876 96.2157 96.5146 97.1987 97.7536 97.1697C98.9936 97.1417 99.9746 96.1147 99.9466 94.8747C99.9186 93.6357 98.8916 92.6547 97.6526 92.6827C96.4136 92.7107 95.4316 93.7387 95.4596 94.9777Z" fill="white"/>
</svg>

<svg width="107" height="104" viewBox="0 0 107 104" fill="none" xmlns="http://www.w3.org/2000/svg"><path fill-rule="evenodd" clip-rule="evenodd" d="M78.26 85.374l12.873 3.14-3.72-12.72-9.152 9.58z" fill="#F15A28"/><mask id="mask0_0_2398" style="mask-type:alpha" maskUnits="userSpaceOnUse" x="0" y="1" width="88" height="85"><path fill-rule="evenodd" clip-rule="evenodd" d="M0 85.361V1h87.4v84.361H0z" fill="#fff"/></mask><g mask="url(#mask0_0_2398)"><path fill-rule="evenodd" clip-rule="evenodd" d="M2.195 3.497C8.794-3.41 28.277 4.502 45.712 21.17c4.68 4.474 8.738 9.126 12.042 13.67l.1 4.408a2.168 2.168 0 002.21 2.113l3.979-.09a98.356 98.356 0 013.815 3.461C79.238 55.61 86.522 67.643 87.4 75.808l-9.127 9.553c-8.193-.508-20.541-7.24-31.922-18.119a99.8 99.8 0 01-3.63-3.654l-.09-3.98a2.17 2.17 0 00-2.21-2.114l-4.408.101c-4.687-3.096-9.516-6.939-14.198-11.414C4.38 29.514-4.404 10.404 2.195 3.497z" fill="#F86703"/></g><mask id="mask1_0_2398" style="mask-type:alpha" maskUnits="userSpaceOnUse" x="0" y="1" width="107" height="103"><path fill-rule="evenodd" clip-rule="evenodd" d="M0 57.595V1h106.402v102.68H0V1h57.754v56.595H0z" fill="#fff"/></mask><g mask="url(#mask1_0_2398)"><path fill-rule="evenodd" clip-rule="evenodd" d="M40.422 57.494l-4.408.101c-4.687-3.096-9.516-6.939-14.198-11.414C4.38 29.514-4.404 10.404 2.195 3.497 8.794-3.41 28.277 4.502 45.712 21.17c4.68 4.474 8.738 9.126 12.042 13.67" fill="#FFC105"/></g><path fill-rule="evenodd" clip-rule="evenodd" d="M78.273 85.362c-5.731-.355-13.498-3.758-21.543-9.496l18.065-.71a2.193 2.193 0 001.507-.692c.383-.407.618-.956.614-1.556l-.118-18.378c6.18 7.843 9.983 15.522 10.602 21.278l-9.127 9.554z" fill="#F15A28"/><path fill-rule="evenodd" clip-rule="evenodd" d="M30.793 33.535a2.618 2.618 0 001.801-.826 2.68 2.68 0 00.736-1.86l-.129-19.951c4.153 2.88 8.39 6.33 12.51 10.27.777.742 1.534 1.49 2.275 2.24l.138 21.316a2.969 2.969 0 01-.816 2.06 2.9 2.9 0 01-1.997.919l-20.963.825a118.879 118.879 0 01-2.533-2.346c-4.065-3.888-7.66-7.907-10.699-11.873l19.677-.773z" fill="#F7941E"/><path fill-rule="evenodd" clip-rule="evenodd" d="M24.349 48.528l20.962-.825a2.904 2.904 0 001.998-.917c.509-.54.82-1.268.815-2.061l-.137-21.316c3.729 3.775 7.01 7.64 9.767 11.43l.1 4.409a2.168 2.168 0 002.21 2.113l3.979-.091c.43.37.858.748 1.286 1.129l.122 18.889a2.974 2.974 0 01-.815 2.06 2.9 2.9 0 01-1.997.918l-18.56.73a98.65 98.65 0 01-1.356-1.408l-.091-3.981a2.167 2.167 0 00-2.21-2.112l-4.408.099c-3.846-2.54-7.788-5.584-11.665-9.066z" fill="#F86703"/><path fill-rule="evenodd" clip-rule="evenodd" d="M93.227 86.766l-5.075 5.311 5.075-5.31z" fill="#BC7400"/><path fill-rule="evenodd" clip-rule="evenodd" d="M82.071 86.015l6.001-6.28 3.502 4.98-4.368 4.617-5.135-3.317zm8.499 12.23l14.065 3.769-6.053-5.08a2.174 2.174 0 01-2.36-.443 2.208 2.208 0 01-.07-3.116 2.207 2.207 0 013.115-.07c.647.618.849 1.561.551 2.336l4.817 6.373-3.914-14.344-7.779-2.354-5.075 5.311 2.703 7.618z" fill="#F15A28"/><path fill-rule="evenodd" clip-rule="evenodd" d="M85.526 90.951c-.785-.75-.813-2.014-.062-2.753l4.898-5.126a1.935 1.935 0 012.754-.063c.785.75.813 1.969.063 2.754L88.28 90.89a1.935 1.935 0 01-2.754.063z" fill="#F15A28"/><mask id="mask2_0_2398" style="mask-type:alpha" maskUnits="userSpaceOnUse" x="102" y="100" width="5" height="4"><path fill-rule="evenodd" clip-rule="evenodd" d="M106.402 103.68h-3.538v-3.538h3.538v3.538z" fill="#fff"/></mask><g mask="url(#mask2_0_2398)"><path fill-rule="evenodd" clip-rule="evenodd" d="M102.865 101.952a1.77 1.77 0 103.54-.081 1.77 1.77 0 00-3.54.081z" fill="#F15A28"/></g><path fill-rule="evenodd" clip-rule="evenodd" d="M95.46 94.978a2.243 2.243 0 104.487-.103 2.243 2.243 0 10-4.487.103z" fill="#fff"/><path fill-rule="evenodd" clip-rule="evenodd" d="M99.818 95.642l-1.315 1.376.332 1.358 5.15 3.243-.565-2.32-3.602-3.657z" fill="#F15A28"/><path fill-rule="evenodd" clip-rule="evenodd" d="M95.46 94.978a2.243 2.243 0 104.487-.103 2.243 2.243 0 10-4.487.103z" fill="#fff"/></svg>
